status/symbolic/weather-few-clouds-symbolic.svg

<?xml version="1.0" encoding="UTF-8" standalone="no"?>
<svg
   xmlns:dc="http://purl.org/dc/elements/1.1/"
   xmlns:cc="http://creativecommons.org/ns#"
   xmlns:rdf="http://www.w3.org/1999/02/22-rdf-syntax-ns#"
   xmlns:svg="http://www.w3.org/2000/svg"
   xmlns="http://www.w3.org/2000/svg"
   id="svg8"
   version="1.1"
   width="16"
   height="16">
  <metadata
     id="metadata14">
    <rdf:RDF>
      <cc:Work
         rdf:about="">
        <dc:format>image/svg+xml</dc:format>
        <dc:type
           rdf:resource="http://purl.org/dc/dcmitype/StillImage" />
        <dc:title></dc:title>
      </cc:Work>
    </rdf:RDF>
  </metadata>
  <defs
     id="defs12" />
  <path
     id="path1048-0"
     class="warning"
     d="m 5.9863784,2 a 0.5,0.5 0 0 0 -0.486328,0.5 v 1 a 0.5000002,0.5000002 0 1 0 1,0 v -1 A 0.5,0.5 0 0 0 5.9863784,2 Z m -3.882812,1.611328 a 0.49992449,0.49992449 0 0 0 -0.345704,0.853516 l 0.707032,0.708984 A 0.499,0.499 0 0 0 3.3184094,4.818359 0.5,0.5 0 0 0 3.1719254,4.466797 L 2.4648944,3.757812 A 0.49992449,0.49992449 0 0 0 2.1035664,3.611328 Z m 7.767578,0 a 0.502,0.502 0 0 0 -0.335938,0.146484 l -0.707031,0.707032 a 0.50027817,0.50027817 0 0 0 -0.07227,0.648437 c 0.18267,0.05192 0.361966,0.119 0.533203,0.203125 A 0.50027817,0.50027817 0 0 0 9.5352024,5.171875 L 10.242234,4.464844 a 0.5,0.5 0 0 0 0.148437,-0.353516 0.502,0.502 0 0 0 -0.5195306,-0.5 z M 5.9570814,5 a 3.0000002,3.0000002 0 0 0 -2.492187,4.599609 c 0.270498,-0.389465 0.63566,-0.72537 1.046875,-0.992187 -0.0012,-0.03408 -0.01151,-0.06746 -0.01172,-0.101563 a 1.0001,1.0001 0 0 1 0,-0.0059 c 0,-0.916298 0.37747,-1.826689 1.025391,-2.474609 0.40356,-0.403561 0.913768,-0.68761 1.458984,-0.855469 A 3.0000002,3.0000002 0 0 0 5.9570814,5 Z m -5.457031,2.5 a 0.50000001,0.50000001 0 1 0 0,1 h 1 c 0.277,0 0.5,-0.223 0.5,-0.5 0,-0.277 -0.223,-0.5 -0.5,-0.5 z m 2.304688,3.181641 a 0.5,0.5 0 0 0 -0.339844,0.146484 l -0.707032,0.707031 a 0.49994694,0.49994694 0 1 0 0.707032,0.707031 l 0.615234,-0.615234 C 3.0307534,11.422316 3.0000504,11.21306 3.0000504,11 c 3.9e-5,-0.09328 0.01247,-0.183302 0.02344,-0.273438 a 0.5,0.5 0 0 0 -0.21875,-0.04492 z"
     style="fill:#f9c440" />
  <path
     style="opacity:1;vector-effect:none;fill:#555761;fill-opacity:1;stroke:none;stroke-width:1.00000012;stroke-linecap:butt;stroke-linejoin:miter;stroke-miterlimit:4;stroke-dasharray:none;stroke-dashoffset:0;stroke-opacity:1;marker:none;paint-order:normal"
     d="M 8.0000504,6 A 2.5,2.5 0 0 1 10.164113,7.253906 1.5,1.5 0 0 1 11.00005,7 a 1.5,1.5 0 0 1 1.5,1.5 A 1.5,1.5 0 0 1 12.398488,9.042969 2,2 0 0 1 14.00005,11 a 2,2 0 0 1 -2,2 H 6.0000504 a 2,2 0 0 1 -2,-2 A 2,2 0 0 1 5.5645034,9.048828 2.5,2.5 0 0 1 5.5000504,8.5 a 2.5,2.5 0 0 1 2.5,-2.5 z"
     id="path859-6-6" />
</svg>

<svg
        xmlns='http://www.w3.org/2000/svg'
        xmlns:svg='http://www.w3.org/2000/svg'
        id='svg8'
        width='16'
        height='16'>
  <path
          id='path1048-0'
          fill='url(#gpa:warning) #f9c440'
          fill-opacity='1'
          fill-rule='nonzero'
          stroke='none'
          d='M 5.98638 2 A 0.5 0.5 0 0 0 5.50005 2.5 L 5.50005 3.5 A 0.5 0.5 0 1 0 6.50005 3.5 L 6.50005 2.5 A 0.5 0.5 0 0 0 5.98638 2 Z M 2.10357 3.61133 A 0.499924 0.499924 0 0 0 1.75786 4.46484 L 2.46489 5.17383 A 0.499 0.499 0 0 0 3.31841 4.81836 A 0.5 0.5 0 0 0 3.17193 4.4668 L 2.46489 3.75781 A 0.499924 0.499924 0 0 0 2.10357 3.61133 Z M 9.87114 3.61133 A 0.502 0.502 0 0 0 9.53521 3.75781 L 8.82818 4.46484 A 0.500278 0.500278 0 0 0 8.75591 5.11328 C 8.93858 5.1652, 9.11787 5.23228, 9.28911 5.31641 A 0.500278 0.500278 0 0 0 9.5352 5.17188 L 10.2422 4.46484 A 0.5 0.5 0 0 0 10.3907 4.11133 A 0.502 0.502 0 0 0 9.87114 3.61133 Z M 5.95708 5 A 3 3 0 0 0 3.46489 9.59961 C 3.73539 9.21014, 4.10055 8.87424, 4.51177 8.60742 C 4.51057 8.57334, 4.50026 8.53996, 4.50005 8.50586 A 1.0001 1.0001 0 0 1 4.50005 8.49996 C 4.50005 7.58366, 4.87752 6.67327, 5.52544 6.02535 C 5.929 5.62179, 6.43921 5.33774, 6.98442 5.16988 A 3 3 0 0 0 5.95708 5 Z M 0.50005 7.5 A 0.5 0.5 0 1 0 0.50005 8.5 L 1.50005 8.5 C 1.77705 8.5, 2.00005 8.277, 2.00005 8 C 2.00005 7.723, 1.77705 7.5, 1.50005 7.5 Z M 2.80474 10.6816 A 0.5 0.5 0 0 0 2.46489 10.8281 L 1.75786 11.5352 A 0.499947 0.499947 0 1 0 2.46489 12.2422 L 3.08013 11.627 C 3.03075 11.4223, 3.00005 11.2131, 3.00005 11 C 3.00009 10.9067, 3.01252 10.8167, 3.02349 10.7266 A 0.5 0.5 0 0 0 2.80474 10.6816 Z'
          class="warning">
  </path>
  <path
          id='path859-6-6'
          opacity='1'
          fill='url(#gpa:foreground) #555761'
          fill-opacity='1'
          fill-rule='nonzero'
          stroke='none'
          stroke-opacity='1'
          stroke-width='1'
          stroke-linecap='butt'
          stroke-linejoin='miter'
          stroke-miterlimit='4'
          stroke-dasharray='none'
          stroke-dashoffset='0'
          marker-start='none'
          marker-mid='none'
          marker-end='none'
          paint-order='normal'
          d='M 8.00005 6 A 2.5 2.5 0 0 1 10.1641 7.25391 A 1.5 1.5 0 0 1 11 7 A 1.5 1.5 0 0 1 12.5 8.5 A 1.5 1.5 0 0 1 12.3985 9.04297 A 2 2 0 0 1 14 11 A 2 2 0 0 1 12 13 L 6.00005 13 A 2 2 0 0 1 4.00005 11 A 2 2 0 0 1 5.5645 9.04883 A 2.5 2.5 0 0 1 5.50005 8.5 A 2.5 2.5 0 0 1 8.00005 6 Z'
          class="foreground">
  </path>
</svg>
